X: 39005
T: Swallowtail, The
R: jig
M: 6/8
K: Adorian
B|cAA eAA|cAA e2A|BGG dGG|gfe dcB|
ccA eAA|cAA e2f|gfe dcB|1 cAA A2:|2 cAA A3||
efg a2b|a2b age-|efg a2b|age g3|
efg a2b|a2b agf|gfe dcB|Bce A3:|

